teeny/solid/unlock.svg

<svg width="15" height="15" viewBox="0 0 15 15" fill="none" xmlns="http://www.w3.org/2000/svg">
<path d="M5 3.5C5 2.11929 6.11929 1 7.5 1C8.88071 1 10 2.11929 10 3.5V4H11V3.5C11 1.567 9.433 0 7.5 0C5.567 0 4 1.567 4 3.5V6H2.5C1.67157 6 1 6.67157 1 7.5V13.5C1 14.3284 1.67157 15 2.5 15H12.5C13.3284 15 14 14.3284 14 13.5V7.5C14 6.67157 13.3284 6 12.5 6H5V3.5Z" fill="black"/>
</svg>

<svg viewBox="0 0 15 15" xmlns="http://www.w3.org/2000/svg"><path d="M5 3.5C5 2.11 6.11 1 7.5 1 8.88 1 10 2.11 10 3.5V4h1v-.5C11 1.567 9.43 0 7.5 0 5.56 0 4 1.567 4 3.5V6H2.5C1.67 6 1 6.67 1 7.5v6c0 .82.67 1.5 1.5 1.5h10c.82 0 1.5-.68 1.5-1.5v-6c0-.83-.68-1.5-1.5-1.5H5V3.5Z"/></svg>
